dist/img/svg/advantages/no-dust.svg

<svg width="28" height="28" viewBox="0 0 28 28" fill="none" xmlns="http://www.w3.org/2000/svg">
<path d="M13.9996 0C11.2307 5.27133e-05 8.52402 0.821183 6.22178 2.35955C3.91955 3.89793 2.12519 6.08444 1.06561 8.64261C0.00603032 11.2008 -0.271176 14.0157 0.269043 16.7314C0.809262 19.4471 2.14264 21.9417 4.10057 23.8996C6.0585 25.8575 8.55305 27.1908 11.2688 27.731C13.9845 28.2712 16.7994 27.9939 19.3575 26.9343C21.9156 25.8746 24.1021 24.0802 25.6404 21.778C27.1787 19.4757 27.9998 16.7689 27.9998 14C27.9956 10.2882 26.5192 6.72968 23.8945 4.10508C21.2699 1.48049 17.7114 0.00416194 13.9996 0ZM13.9996 27.0674C11.4152 27.0674 8.88889 26.301 6.74006 24.8651C4.59123 23.4292 2.91644 21.3884 1.92745 19.0007C0.938473 16.613 0.679724 13.9857 1.18393 11.4509C1.68813 8.91617 2.93264 6.58784 4.76009 4.76039C6.58753 2.93293 8.91584 1.6884 11.4506 1.1842C13.9853 0.679989 16.6126 0.93874 19.0003 1.92773C21.388 2.91672 23.4288 4.59153 24.8647 6.74037C26.3005 8.88921 27.0669 11.4156 27.067 14C27.063 17.4645 25.685 20.7859 23.2352 23.2356C20.7855 25.6853 17.4641 27.0635 13.9996 27.0674Z" fill="#78C081"/>
<path d="M13.9996 27.0674C11.4152 27.0674 8.88889 26.301 6.74006 24.8651C4.59123 23.4292 2.91644 21.3884 1.92745 19.0007C0.938473 16.613 0.679724 13.9857 1.18393 11.4509C1.68813 8.91617 2.93264 6.58784 4.76009 4.76039C6.58753 2.93293 8.91584 1.6884 11.4506 1.1842C13.9853 0.679989 16.6126 0.93874 19.0003 1.92773C21.388 2.91672 23.4288 4.59153 24.8647 6.74037C26.3005 8.88921 27.0669 11.4156 27.067 14C27.063 17.4645 25.685 20.7859 23.2352 23.2356C20.7855 25.6853 17.4641 27.0635 13.9996 27.0674Z" fill="#78C081"/>
<path d="M5.15458 19.8285C3.57366 17.7851 2.81557 15.2712 3.01769 12.7425C3.2198 10.2138 4.36875 7.83756 6.25633 6.04434C8.14391 4.25111 10.6452 3.15957 13.307 2.96752C15.9688 2.77546 18.615 3.4956 20.766 4.99743L5.15458 19.8285Z" fill="white"/>
<path fill-rule="evenodd" clip-rule="evenodd" d="M21.9993 4.92778C21.9958 4.86252 21.9779 4.79869 21.9468 4.7404C21.9157 4.68212 21.8721 4.63069 21.8187 4.58944C19.4859 2.78616 16.5319 1.86891 13.5284 2.01514C10.5248 2.16136 7.685 3.36066 5.55843 5.38103C3.43186 7.40141 2.16961 10.0993 2.01589 12.9527C1.86217 15.8061 2.8279 18.6122 4.72624 20.8283C4.76963 20.879 4.82375 20.9206 4.8851 20.9502C4.94646 20.9798 5.01367 20.9968 5.08239 21.0001H5.10739C5.17193 21.0001 5.23583 20.988 5.29545 20.9645C5.35507 20.9411 5.40923 20.9066 5.45483 20.8633L21.8558 5.28267C21.9046 5.2364 21.9426 5.18088 21.9673 5.11974C21.992 5.0586 22.0029 4.99319 21.9993 4.92778ZM3.01769 12.7425C2.81557 15.2712 3.57366 17.7851 5.15458 19.8285L20.766 4.99743C18.615 3.4956 15.9688 2.77546 13.307 2.96752C10.6452 3.15957 8.14391 4.25111 6.25633 6.04434C4.36875 7.83756 3.2198 10.2138 3.01769 12.7425Z" fill="white"/>
<path d="M13.7449 25.0583C11.4181 25.0657 9.14731 24.3804 7.25149 23.0989L22.9446 8.19013C24.2939 9.99063 25.0156 12.1474 25.0085 14.3576C25.0051 17.1946 23.8173 19.9145 21.7057 21.9206C19.5941 23.9266 16.7311 25.0551 13.7449 25.0583Z" fill="white"/>
<path fill-rule="evenodd" clip-rule="evenodd" d="M23.3905 7.18015C23.3472 7.12775 23.2927 7.08465 23.2306 7.05372C23.1685 7.02278 23.1001 7.00469 23.0301 7.00066C22.9602 6.99735 22.8904 7.00784 22.8249 7.03146C22.7595 7.05509 22.7 7.09133 22.65 7.1379L6.14532 22.8176C6.09571 22.8647 6.05718 22.9213 6.03229 22.9835C6.00739 23.0458 5.99669 23.1124 6.00089 23.1789C6.0051 23.2454 6.02411 23.3103 6.05667 23.3693C6.08924 23.4282 6.13461 23.48 6.1898 23.5211C8.34103 25.1346 11.004 26.0084 13.7449 26.0001C16.994 25.9967 20.109 24.7689 22.4065 22.5863C24.7039 20.4036 25.9963 17.4443 25.9999 14.3576C26.0085 11.7538 25.0888 9.2239 23.3905 7.18015ZM7.25149 23.0989C9.14731 24.3804 11.4181 25.0657 13.7449 25.0583C16.7311 25.0551 19.5941 23.9266 21.7057 21.9206C23.8173 19.9145 25.0051 17.1946 25.0085 14.3576C25.0156 12.1474 24.2939 9.99063 22.9446 8.19013L7.25149 23.0989Z" fill="white"/>
<path d="M12 8.21061C12 8.45004 12.071 8.68409 12.204 8.88316C12.337 9.08224 12.5261 9.2374 12.7473 9.32902C12.9685 9.42065 13.2119 9.44462 13.4467 9.39791C13.6815 9.3512 13.8972 9.2359 14.0665 9.06661C14.2358 8.89731 14.3511 8.68161 14.3978 8.44678C14.4445 8.21196 14.4206 7.96856 14.3289 7.74736C14.2373 7.52616 14.0822 7.33709 13.8831 7.20408C13.684 7.07106 13.45 7.00006 13.2105 7.00006C12.8896 7.00041 12.5819 7.12807 12.355 7.35501C12.128 7.58196 12.0004 7.88966 12 8.21061ZM13.488 8.21061C13.488 8.26554 13.4717 8.31924 13.4412 8.36491C13.4107 8.41058 13.3673 8.44617 13.3166 8.46719C13.2658 8.48821 13.21 8.49371 13.1561 8.483C13.1022 8.47228 13.0527 8.44583 13.0139 8.40699C12.9751 8.36815 12.9486 8.31867 12.9379 8.2648C12.9272 8.21092 12.9327 8.15508 12.9537 8.10434C12.9747 8.05359 13.0103 8.01022 13.056 7.9797C13.1017 7.94918 13.1554 7.9329 13.2103 7.9329C13.2839 7.93297 13.3545 7.96225 13.4066 8.01432C13.4586 8.06638 13.4879 8.13698 13.488 8.21061Z" fill="#78C081"/>
<path d="M22.2105 13.0001C21.9711 13.0001 21.7371 13.0711 21.538 13.2041C21.3389 13.3371 21.1838 13.5262 21.0921 13.7474C21.0005 13.9686 20.9766 14.212 21.0233 14.4468C21.07 14.6816 21.1853 14.8973 21.3546 15.0666C21.5239 15.2359 21.7396 15.3512 21.9744 15.3979C22.2092 15.4446 22.4526 15.4207 22.6738 15.3291C22.895 15.2374 23.0841 15.0823 23.2171 14.8832C23.3501 14.6841 23.4211 14.4501 23.4211 14.2106C23.4208 13.8897 23.2932 13.5819 23.0662 13.355C22.8393 13.128 22.5315 13.0004 22.2105 13.0001ZM22.2105 14.4881C22.1556 14.4881 22.1019 14.4718 22.0562 14.4413C22.0106 14.4107 21.975 14.3674 21.9539 14.3166C21.9329 14.2658 21.9274 14.21 21.9382 14.1561C21.9489 14.1022 21.9754 14.0527 22.0143 14.0139C22.0531 13.9751 22.1026 13.9487 22.1565 13.938C22.2104 13.9273 22.2663 13.9328 22.317 13.9539C22.3677 13.9749 22.4111 14.0106 22.4416 14.0563C22.4721 14.102 22.4883 14.1557 22.4883 14.2106C22.4882 14.2843 22.4589 14.3548 22.4068 14.4069C22.3548 14.4589 22.2842 14.4881 22.2105 14.4881Z" fill="#78C081"/>
<path d="M6.5 9.00006C6.00555 9.00006 5.5222 9.14669 5.11108 9.42139C4.69995 9.6961 4.37952 10.0865 4.1903 10.5434C4.00108 11.0002 3.95157 11.5029 4.04804 11.9878C4.1445 12.4728 4.3826 12.9182 4.73223 13.2679C5.08187 13.6175 5.52732 13.8556 6.01227 13.9521C6.49723 14.0485 6.99989 13.999 7.45671 13.8098C7.91352 13.6206 8.30397 13.3001 8.57867 12.889C8.85338 12.4779 9 11.9945 9 11.5001C8.99927 10.8373 8.73565 10.2018 8.26696 9.7331C7.79828 9.26441 7.16282 9.00079 6.5 9.00006ZM6.5 12.6275C6.27701 12.6275 6.05903 12.5614 5.87362 12.4375C5.68821 12.3136 5.54371 12.1376 5.45837 11.9315C5.37304 11.7255 5.35071 11.4988 5.39421 11.2801C5.43772 11.0614 5.5451 10.8605 5.70277 10.7028C5.86045 10.5452 6.06134 10.4378 6.28005 10.3943C6.49875 10.3508 6.72544 10.3731 6.93146 10.4584C7.13747 10.5438 7.31356 10.6883 7.43744 10.8737C7.56133 11.0591 7.62745 11.2771 7.62745 11.5001C7.62714 11.799 7.50826 12.0856 7.29688 12.297C7.08551 12.5083 6.79892 12.6272 6.5 12.6275Z" fill="#78C081"/>
<path d="M20.6396 20.0744L20.3982 19.9904C20.5555 19.4803 20.531 18.9328 20.329 18.4382C20.127 17.9436 19.7594 17.5314 19.2868 17.2695L19.3927 16.7643C19.4216 16.6265 19.3937 16.4829 19.3149 16.3654C19.2361 16.2478 19.113 16.1657 18.9727 16.1373C18.8323 16.1089 18.6863 16.1364 18.5666 16.2138C18.4469 16.2911 18.3633 16.412 18.3344 16.5499L18.2906 16.7595C18.0678 16.4578 17.7569 16.2297 17.3992 16.1054C17.0415 15.9811 16.6538 15.9665 16.2874 16.0635C15.921 16.1605 15.5933 16.3645 15.3476 16.6486C15.1019 16.9326 14.9499 17.2833 14.9116 17.6541C14.8539 17.6756 14.8011 17.7056 14.7455 17.7311L14.4136 17.3481C14.3202 17.242 14.1878 17.1766 14.0453 17.1661C13.9029 17.1557 13.7621 17.2011 13.6536 17.2923C13.5452 17.3836 13.4779 17.5133 13.4666 17.6532C13.4552 17.793 13.5007 17.9316 13.5931 18.0386L13.8866 18.3755C13.5817 18.7243 13.3815 19.1495 13.3082 19.6036C13.2348 20.0577 13.2914 20.5228 13.4714 20.9472L13.2161 21.1352C13.1015 21.2197 13.0257 21.3454 13.0054 21.4847C12.9852 21.6241 13.0221 21.7656 13.1081 21.8782C13.194 21.9908 13.322 22.0652 13.4639 22.0852C13.6057 22.1051 13.7498 22.0688 13.8644 21.9843L14.0904 21.8179C14.4275 22.1285 14.8446 22.3428 15.2967 22.4374C15.7488 22.532 16.2186 22.5034 16.6553 22.3546L16.7226 22.6051C16.7592 22.7412 16.8494 22.8574 16.9733 22.9282C17.0971 22.999 17.2445 23.0185 17.3831 22.9825C17.5216 22.9465 17.6399 22.858 17.712 22.7363C17.784 22.6146 17.8039 22.4698 17.7673 22.3337L17.6129 21.7639C17.6565 21.7214 17.7006 21.6796 17.741 21.6335C17.8627 21.6524 17.9856 21.662 18.1087 21.662C18.4342 21.6618 18.7563 21.5962 19.055 21.4692C19.3537 21.3421 19.6228 21.1563 19.8456 20.9232L20.2794 21.0749C20.3462 21.0981 20.4171 21.1082 20.488 21.1046C20.5589 21.1009 20.6283 21.0836 20.6924 21.0535C20.7564 21.0235 20.8138 20.9814 20.8613 20.9296C20.9087 20.8778 20.9454 20.8173 20.969 20.7516C20.9927 20.6859 21.003 20.6162 20.9993 20.5466C20.9955 20.477 20.9779 20.4088 20.9473 20.3459C20.9168 20.283 20.8739 20.2266 20.8211 20.18C20.7684 20.1333 20.7068 20.0974 20.6399 20.0741L20.6396 20.0744ZM18.1081 20.6012C17.9667 20.6008 17.8263 20.578 17.6923 20.5335C17.5774 20.4955 17.4528 20.4966 17.3386 20.5368C17.2244 20.5769 17.1274 20.6536 17.0631 20.7546C16.964 20.91 16.8359 21.0456 16.6855 21.1543C16.6815 21.1574 16.6766 21.1595 16.6726 21.1625C16.4938 21.288 16.2886 21.3725 16.0721 21.4095C15.8556 21.4466 15.6334 21.4354 15.422 21.3767C15.2105 21.318 15.0152 21.2133 14.8505 21.0704C14.6858 20.9275 14.556 20.75 14.4705 20.5512C14.3851 20.3523 14.3463 20.1371 14.357 19.9215C14.3677 19.7059 14.4277 19.4954 14.5324 19.3057C14.6371 19.1159 14.784 18.9517 14.9621 18.8252C15.1401 18.6988 15.3449 18.6133 15.5612 18.5751C15.7004 18.5503 15.8241 18.4729 15.9059 18.3595C15.9877 18.2462 16.021 18.1058 15.9986 17.9686C15.9652 17.7716 16.0102 17.5695 16.1242 17.4042C16.2383 17.2389 16.4126 17.123 16.6113 17.0804C16.8099 17.0379 17.0176 17.072 17.1913 17.1756C17.3651 17.2793 17.4916 17.4446 17.5447 17.6374C17.5763 17.7491 17.6444 17.8476 17.7383 17.9177C17.8323 17.9879 17.9471 18.0259 18.0652 18.0259C18.0748 18.0259 18.0961 18.0259 18.118 18.0238C18.466 18.0248 18.7993 18.1617 19.0445 18.4041C19.2898 18.6466 19.427 18.9749 19.4259 19.3167C19.4248 19.6585 19.2855 19.9859 19.0386 20.2269C18.7918 20.4678 18.4576 20.6026 18.1097 20.6015L18.1081 20.6012Z" fill="#78C081"/>
</svg>

<svg width="28" height="28" fill="none" xmlns="http://www.w3.org/2000/svg"><path d="M14 0a14 14 0 1014 14A14.016 14.016 0 0014 0zm0 27.067A13.066 13.066 0 1127.067 14 13.082 13.082 0 0114 27.067z" fill="#78C081"/><path d="M14 27.067A13.066 13.066 0 1127.067 14 13.082 13.082 0 0114 27.067z" fill="#78C081"/><path d="M5.155 19.828c-1.581-2.043-2.34-4.557-2.137-7.085.202-2.53 1.35-4.905 3.238-6.699 1.888-1.793 4.39-2.884 7.051-3.076 2.662-.193 5.308.528 7.459 2.03L5.155 19.827z" fill="#fff"/><path fill-rule="evenodd" clip-rule="evenodd" d="M22 4.928a.449.449 0 00-.181-.339c-2.333-1.803-5.287-2.72-8.29-2.574-3.004.146-5.844 1.346-7.97 3.366-2.127 2.02-3.39 4.718-3.543 7.572-.154 2.853.812 5.66 2.71 7.875a.488.488 0 00.356.172h.025a.513.513 0 00.348-.137l16.4-15.58A.465.465 0 0022 4.928zM3.017 12.742c-.202 2.53.556 5.043 2.137 7.086l15.611-14.83c-2.151-1.502-4.797-2.223-7.459-2.03-2.662.192-5.163 1.283-7.05 3.076-1.888 1.794-3.037 4.17-3.24 6.699z" fill="#fff"/><path d="M13.745 25.058a11.543 11.543 0 01-6.494-1.96L22.945 8.19a10.22 10.22 0 012.064 6.168c-.004 2.837-1.192 5.556-3.303 7.563-2.112 2.006-4.975 3.134-7.961 3.137z" fill="#fff"/><path fill-rule="evenodd" clip-rule="evenodd" d="M23.39 7.18a.491.491 0 00-.36-.18.531.531 0 00-.38.138L6.145 22.818a.47.47 0 00-.144.36.453.453 0 00.189.343c2.151 1.614 4.814 2.487 7.555 2.48 3.249-.004 6.364-1.232 8.662-3.415 2.297-2.182 3.59-5.142 3.593-8.228.009-2.604-.911-5.134-2.61-7.178zM7.252 23.1a11.543 11.543 0 006.494 1.96c2.986-.004 5.85-1.132 7.96-3.138 2.112-2.006 3.3-4.726 3.304-7.563a10.22 10.22 0 00-2.064-6.168L7.25 23.1z" fill="#fff"/><path d="M12 8.21a1.21 1.21 0 102.421 0 1.21 1.21 0 00-2.421 0zm1.488 0a.278.278 0 11-.556 0 .278.278 0 01.556 0zM22.21 13a1.21 1.21 0 100 2.421 1.21 1.21 0 000-2.42zm0 1.488a.278.278 0 110-.556.278.278 0 010 .556zM6.5 9a2.5 2.5 0 100 5 2.5 2.5 0 000-5zm0 3.627a1.127 1.127 0 110-2.254 1.127 1.127 0 010 2.255zm14.14 7.447l-.242-.084a2.305 2.305 0 00-.069-1.552 2.357 2.357 0 00-1.042-1.168l.106-.506a.523.523 0 00-.078-.399.548.548 0 00-.748-.152.53.53 0 00-.233.337l-.043.21a1.87 1.87 0 00-.892-.655 1.905 1.905 0 00-1.112-.041 1.877 1.877 0 00-.94.585 1.823 1.823 0 00-.435 1.005c-.058.022-.11.052-.167.077l-.331-.383a.544.544 0 00-.947.305.524.524 0 00.126.386l.294.336a2.441 2.441 0 00-.415 2.572l-.256.188a.524.524 0 00-.108.743.542.542 0 00.756.106l.226-.166a2.578 2.578 0 002.565.537l.068.25a.532.532 0 00.25.323.549.549 0 00.739-.192.523.523 0 00.055-.402l-.154-.57c.044-.043.088-.084.128-.13a2.396 2.396 0 001.314-.165c.299-.127.568-.313.79-.546l.434.152a.551.551 0 00.582-.145.529.529 0 00.086-.584.53.53 0 00-.307-.272zm-2.532.527c-.141 0-.282-.023-.416-.067a.548.548 0 00-.629.22 1.451 1.451 0 01-.377.4l-.013.009a1.48 1.48 0 01-1.251.214 1.473 1.473 0 01-.572-.307 1.417 1.417 0 01-.318-1.765c.105-.19.252-.353.43-.48a1.48 1.48 0 01.6-.25.542.542 0 00.344-.215.523.523 0 00.093-.391.767.767 0 01.125-.565.805.805 0 011.067-.229.78.78 0 01.354.462c.031.112.1.21.193.28.094.07.21.109.327.109.01 0 .031 0 .053-.002.348 0 .681.138.927.38a1.278 1.278 0 01-.006 1.823 1.33 1.33 0 01-.93.375z" fill="#78C081"/></svg>
